X:1
T:Come All You Fair and Tender Ladies
M:3/4
L:1/8
K:C
 GAc| d3 ce c| A G2 GA c| d3c/2-d/2e/2-d/2 c| A3 cG E| C3 D/2E/2 ED|\
 E G2 CE G| A3B/2-A/2 GE| D3||
